la/paint-roller-solid.svg

<svg xmlns="http://www.w3.org/2000/svg" viewBox="0 0 32 32" height="1em" width="1em">
  <path d="M5 4v8h18V4Zm2 2h14v4H7Zm17 1v2h1v4.25l-9.281 2.781-.719.219V19h-2v9h6v-9h-2v-1.25l9.281-2.781.719-.219V7Zm-9 14h2v5h-2Z"/>
</svg>

<svg xmlns="http://www.w3.org/2000/svg" viewBox="0 0 32 32" height="1em" width="1em">
  <path d="M 5 4 L 5 12 L 23 12 L 23 4 Z M 7 6 L 21 6 L 21 10 L 7 10 Z M 24 7 L 24 9 L 25 9 L 25 13.25 L 15.71875 16.03125 L 15 16.25 L 15 19 L 13 19 L 13 28 L 19 28 L 19 19 L 17 19 L 17 17.75 L 26.28125 14.96875 L 27 14.75 L 27 7 Z M 15 21 L 17 21 L 17 26 L 15 26 Z"/>
</svg>
